src/img/logo_haier.svg

<svg fill="none" height="45" viewBox="0 0 147 45" width="147" xmlns="http://www.w3.org/2000/svg"><g fill="#005aaa"><path d="m126.769 30.3637c.066-.5847.1-1.1743.1-1.7761 0-9.066-7.51-16.4147-16.772-16.4147s-16.7719 7.3487-16.7719 16.4147c0 9.0661 7.5099 16.4124 16.7719 16.4124 7.045 0 13.069-4.2444 15.555-10.2721l-7.229-1.2672c-1.603 2.9331-4.632 4.9098-8.096 4.9098-4.596 0-8.404-3.4591-9.17-8.0068zm-16.44-11.3754c3.924 0 7.283 2.5295 8.649 6.1084h-17.305c1.364-3.5789 4.725-6.1084 8.656-6.1084z"/><path d="m88.8174 12.8628h-8.5632v31.5453h8.5632z"/><path d="m84.537 0c-2.6426 0-4.7791 2.14297-4.7791 4.78255 0 2.63224 2.1365 4.77521 4.7791 4.77521 2.6352 0 4.7741-2.14053 4.7741-4.77521.0025-2.63958-2.1389-4.78255-4.7741-4.78255z"/><path d="m27.8286 2.74976v16.97984h-18.46602v-16.97984h-9.36258v41.63144h9.36258v-16.9824h18.46602v16.9824h9.3675v-41.63144z"/><path d="m66.4865 12.8774v1.6904c-2.4885-1.5045-5.4048-2.3754-8.5339-2.3754-9.079 0-16.4444 7.3438-16.4444 16.405 0 9.0587 7.3654 16.4025 16.4444 16.4025 3.0459 0 5.8914-.8268 8.3384-2.2603v1.6439h8.3578v-31.5061zm-8.1158 25.2068c-5.2998 0-9.5851-4.2444-9.5851-9.4844 0-5.2424 4.2853-9.4917 9.5851-9.4917 5.2973 0 9.5899 4.2493 9.5899 9.4917 0 5.24-4.2926 9.4844-9.5899 9.4844z"/><path d="m144.582 9.93213c-7.888 1.37977-13.882 8.24897-13.975 16.52977v17.9486h8.201l.005-18.2862c0-4.1856 3.141-7.6398 7.189-8.1364z"/></g></svg>

<svg width="147" height="45" viewBox="0 0 147 45" fill="none" xmlns="http://www.w3.org/2000/svg">
<path d="M126.769 30.3637C126.835 29.779 126.869 29.1894 126.869 28.5876C126.869 19.5216 119.359 12.1729 110.097 12.1729C100.835 12.1729 93.3251 19.5216 93.3251 28.5876C93.3251 37.6537 100.835 45 110.097 45C117.142 45 123.166 40.7556 125.652 34.7279L118.423 33.4607C116.82 36.3938 113.791 38.3705 110.327 38.3705C105.731 38.3705 101.923 34.9114 101.157 30.3637H126.769ZM110.329 18.9883C114.253 18.9883 117.612 21.5178 118.978 25.0967H101.673C103.037 21.5178 106.398 18.9883 110.329 18.9883Z" fill="#005AAA"/>
<path d="M88.8174 12.8627H80.2542V44.4079H88.8174V12.8627Z" fill="#005AAA"/>
<path d="M84.537 0C81.8945 0 79.7579 2.14297 79.7579 4.78255C79.7579 7.41479 81.8945 9.55776 84.537 9.55776C87.1722 9.55776 89.3112 7.41723 89.3112 4.78255C89.3137 2.14297 87.1722 0 84.537 0Z" fill="#005AAA"/>
<path d="M27.8286 2.74963V19.7295H9.36258V2.74963H0V44.3811H9.36258V27.3987H27.8286V44.3811H37.1961V2.74963H27.8286Z" fill="#005AAA"/>
<path d="M66.4865 12.8774V14.5678C63.9979 13.0633 61.0816 12.1924 57.9526 12.1924C48.8736 12.1924 41.5082 19.5362 41.5082 28.5974C41.5082 37.6561 48.8736 44.9999 57.9526 44.9999C60.9985 44.9999 63.8439 44.1731 66.2909 42.7396V44.3835H74.6488V12.8774H66.4865ZM58.3706 38.0842C53.0708 38.0842 48.7856 33.8398 48.7856 28.5998C48.7856 23.3574 53.0708 19.1081 58.3706 19.1081C63.6679 19.1081 67.9605 23.3574 67.9605 28.5998C67.9605 33.8398 63.6679 38.0842 58.3706 38.0842Z" fill="#005AAA"/>
<path d="M144.582 9.93201C136.694 11.3117 130.7 18.181 130.607 26.4618V44.4104H138.808L138.813 26.1242C138.813 21.9385 141.954 18.4843 146.002 17.9877L144.582 9.93201Z" fill="#005AAA"/>
</svg>
